;FLAVOR:RepRap
;TIME:3333
;Filament used: 2.64265m
;Layer height: 0.1
;MINX:111.051
;MINY:122.4
;MINZ:0.3
;MAXX:175.949
;MAXY:179.6
;MAXZ:5
;Generated with Cura_SteamEngine main
T0
M190 S60
M104 S230
M109 S230
M82 ;absolute extrusion mode
G28 ;Home
G1 Z15.0 F6000; Move Platform down 15mm

;Turn on the tool fan
M106 P0 S.20 X.25

;Prime the extruder
G92 E0
G1 X50 Y6 Z.4 F1500
G1 X250 Y6 E30
G1 X250 Y8
G1 X50 Y8 E60
G1 X50 Y10
G1 X250 Y10
G1 Z15 F6000
G92 E0
M83 ;relative extrusion mode
G1 F1500 E-6.5
;LAYER_COUNT:48
;LAYER:0
M107
G1 F900 Z0.4
G0 F5040 X126.652 Y123.343 Z0.4
G0 X125.637 Y124.74
;TYPE:SKIRT
G1 F900 Z0.3
G1 F1500 E6.5
G1 F2520 X125.975 Y124.171 E0.03236
G1 X126.282 Y123.732 E0.02619
G1 X126.652 Y123.343 E0.02625
G1 X127.075 Y123.014 E0.0262
G1 X127.542 Y122.75 E0.02623
G1 X128.043 Y122.56 E0.0262
G1 X128.706 Y122.415 E0.03318
G1 X129.707 Y122.4 E0.04895
G1 X157.278 Y122.4 E1.34801
G1 X157.979 Y122.41 E0.03428
G1 X158.514 Y122.458 E0.02626
G1 X159.035 Y122.584 E0.02621
G1 X159.531 Y122.787 E0.0262
G1 X159.992 Y123.061 E0.02622
G1 X160.408 Y123.4 E0.02624
G1 X160.86 Y123.898 E0.03288
G1 X161.386 Y124.779 E0.05017
G1 X175.157 Y148.631 E1.34659
G1 X175.5 Y149.246 E0.03443
G1 X175.726 Y149.733 E0.02625
G1 X175.877 Y150.248 E0.02624
G1 X175.949 Y150.779 E0.0262
G1 X175.942 Y151.315 E0.02621
G1 X175.856 Y151.844 E0.0262
G1 X175.649 Y152.486 E0.03298
G1 X175.13 Y153.417 E0.05211
G1 X161.406 Y177.186 E1.34193
G1 X161.023 Y177.83 E0.03663
G1 X160.715 Y178.269 E0.02622
G1 X160.346 Y178.658 E0.02621
G1 X159.923 Y178.987 E0.0262
G1 X159.455 Y179.25 E0.02625
G1 X158.954 Y179.441 E0.02621
G1 X158.29 Y179.586 E0.03323
G1 X157.293 Y179.6 E0.04875
G1 X129.722 Y179.6 E1.34801
G1 X129.021 Y179.59 E0.03428
G1 X128.486 Y179.542 E0.02626
G1 X127.965 Y179.416 E0.02621
G1 X127.469 Y179.213 E0.0262
G1 X127.008 Y178.939 E0.02622
G1 X126.592 Y178.6 E0.02624
G1 X126.138 Y178.1 E0.03302
G1 X125.57 Y177.146 E0.05428
G1 X111.843 Y153.369 E1.34234
G1 X111.5 Y152.754 E0.03443
G1 X111.274 Y152.267 E0.02625
G1 X111.123 Y151.752 E0.02624
G1 X111.051 Y151.221 E0.0262
G1 X111.058 Y150.685 E0.02621
G1 X111.144 Y150.156 E0.0262
G1 X111.351 Y149.514 E0.03298
G1 X111.87 Y148.583 E0.05211
G1 X125.637 Y124.74 E1.34611
G0 F5040 X125.981 Y124.945
G1 F2520 X126.319 Y124.376 E0.03236
G1 X126.611 Y123.963 E0.02473
G1 X126.964 Y123.601 E0.02472
G1 X127.369 Y123.299 E0.0247
G1 X127.817 Y123.065 E0.02471
G1 X128.297 Y122.905 E0.02474
G1 X129.024 Y122.81 E0.03585
G1 X129.713 Y122.8 E0.03369
G1 X157.273 Y122.8 E1.34747
G1 X157.974 Y122.81 E0.03428
G1 X158.477 Y122.857 E0.0247
G1 X158.967 Y122.983 E0.02474
G1 X159.43 Y123.185 E0.0247
G1 X159.857 Y123.457 E0.02475
G1 X160.235 Y123.792 E0.02469
G1 X160.675 Y124.369 E0.03548
G1 X161.039 Y124.979 E0.03473
G1 X174.808 Y148.826 E1.34633
G1 X175.151 Y149.441 E0.03443
G1 X175.361 Y149.901 E0.02472
G1 X175.497 Y150.388 E0.02472
G1 X175.554 Y150.89 E0.0247
G1 X175.531 Y151.395 E0.02472
G1 X175.43 Y151.891 E0.02475
G1 X175.151 Y152.558 E0.03535
G1 X174.783 Y153.217 E0.0369
G1 X161.062 Y176.982 E1.34169
G1 X160.679 Y177.626 E0.03663
G1 X160.387 Y178.038 E0.02469
G1 X160.034 Y178.4 E0.02472
G1 X159.628 Y178.702 E0.02474
G1 X159.18 Y178.935 E0.02469
G1 X158.7 Y179.096 E0.02475
G1 X157.976 Y179.19 E0.0357
G1 X157.288 Y179.2 E0.03364
G1 X129.727 Y179.2 E1.34752
G1 X129.026 Y179.19 E0.03428
G1 X128.523 Y179.143 E0.0247
G1 X128.033 Y179.017 E0.02474
G1 X127.57 Y178.815 E0.0247
G1 X127.143 Y178.543 E0.02475
G1 X126.765 Y178.208 E0.02469
G1 X126.324 Y177.629 E0.03558
G1 X125.917 Y176.946 E0.03887
G1 X112.192 Y153.174 E1.34208
G1 X111.849 Y152.559 E0.03443
G1 X111.639 Y152.099 E0.02472
G1 X111.503 Y151.612 E0.02472
G1 X111.446 Y151.11 E0.0247
G1 X111.469 Y150.605 E0.02472
G1 X111.57 Y150.109 E0.02475
G1 X111.849 Y149.442 E0.03535
G1 X112.217 Y148.783 E0.0369
G1 X125.981 Y124.945 E1.34583
G1 F1500 E-6.5
;MESH:Test_Part_1.STL
G0 F5040 X128.175 Y126.214
G0 X129.114 Y126.756
G0 X115.656 Y151
G1 F1500 E6.5
G0 F5040 X115.326 Y151.001
;TYPE:WALL-INNER
G1 F2520 X129.414 Y175.399 E1.37746
G1 X157.586 Y175.399 E1.3774
G1 X164.63 Y163.2 E0.68873
G1 X171.674 Y151.001 E0.68873
G1 X157.586 Y126.601 E1.37754
G1 X129.414 Y126.601 E1.3774
G1 X115.326 Y151.001 E1.37754
G0 F5040 X114.864 Y151.001
;TYPE:WALL-OUTER
G1 F2520 X129.183 Y175.799 E1.40004
G1 X157.817 Y175.799 E1.39998
G1 X164.976 Y163.4 E0.70001
G1 X172.136 Y151.001 E0.70003
G1 X157.817 Y126.201 E1.40013
G1 X129.183 Y126.201 E1.39998
G1 X114.864 Y151.001 E1.40013
G0 F5040 X114.964 Y151.174
G0 X115.766 Y151.001
;TYPE:SKIN
G1 F2520 X129.634 Y175.018 E1.35595
G1 X157.366 Y175.018 E1.35588
G1 X164.299 Y163.009 E0.67797
G1 X171.234 Y151.001 E0.67798
G1 X157.366 Y126.982 E1.35603
G1 X129.634 Y126.982 E1.35588
G1 X115.766 Y151.001 E1.35603
G0 F5040 X130.128 Y174.817
G1 F2520 X129.23 Y173.919 E0.06209
G1 X129.16 Y173.849
G0 F5040 X128.457 Y172.581
G1 F2520 X130.693 Y174.817 E0.15461
G0 F5040 X131.259 Y174.817
G1 F2520 X127.685 Y171.242 E0.24716
G1 X127.615 Y171.172
G0 F5040 X126.912 Y169.904
G1 F2520 X131.825 Y174.817 E0.33971
G0 F5040 X132.39 Y174.817
G1 F2520 X126.139 Y168.565 E0.43226
G1 X126.069 Y168.495
G0 F5040 X125.366 Y167.227
G1 F2520 X132.956 Y174.817 E0.52481
G0 F5040 X133.522 Y174.817
G1 F2520 X124.593 Y165.888 E0.61739
G1 X124.523 Y165.818
G0 F5040 X123.82 Y164.55
G1 F2520 X134.087 Y174.817 E0.7099
G0 F5040 X134.653 Y174.817
G1 F2520 X123.047 Y163.211 E0.80249
G1 X122.977 Y163.141
G0 F5040 X122.275 Y161.873
G1 F2520 X135.219 Y174.817 E0.895
G0 F5040 X135.785 Y174.817
G1 F2520 X121.502 Y160.534 E0.98759
G1 X121.432 Y160.464
G0 F5040 X120.729 Y159.195
G1 F2520 X136.35 Y174.817 E1.08014
G0 F5040 X136.916 Y174.817
G1 F2520 X119.956 Y157.857 E1.17269
G1 X119.886 Y157.787
G0 F5040 X119.183 Y156.518
G1 F2520 X137.482 Y174.817 E1.26527
G0 F5040 X138.047 Y174.817
G1 F2520 X118.41 Y155.18 E1.35779
G1 X118.34 Y155.11
G0 F5040 X117.637 Y153.84
G1 F2520 X138.613 Y174.817 E1.45041
G0 F5040 X139.179 Y174.817
G1 F2520 X116.864 Y152.502 E1.54295
G1 X116.794 Y152.432
G0 F5040 X116.091 Y151.163
G1 F2520 X139.744 Y174.817 E1.6355
G0 F5040 X140.31 Y174.817
G1 F2520 X116.178 Y150.685 E1.66859
G0 F5040 X116.385 Y150.326
G1 F2520 X140.876 Y174.817 E1.69341
G0 F5040 X141.441 Y174.817
G1 F2520 X116.592 Y149.968 E1.71817
G0 F5040 X116.799 Y149.609
G1 F2520 X142.007 Y174.817 E1.74299
G0 F5040 X142.573 Y174.817
G1 F2520 X117.007 Y149.251 E1.76774
G0 F5040 X117.213 Y148.891
G1 F2520 X143.138 Y174.817 E1.7926
G0 F5040 X143.704 Y174.817
G1 F2520 X117.42 Y148.533 E1.81739
G0 F5040 X117.627 Y148.174
G1 F2520 X144.27 Y174.817 E1.84221
G0 F5040 X144.835 Y174.817
G1 F2520 X117.835 Y147.816 E1.86693
G0 F5040 X118.042 Y147.457
G1 F2520 X145.401 Y174.817 E1.89175
G0 F5040 X145.967 Y174.817
G1 F2520 X118.249 Y147.099 E1.91654
G0 F5040 X118.455 Y146.74
G1 F2520 X146.533 Y174.817 E1.9414
G0 F5040 X147.098 Y174.817
G1 F2520 X118.663 Y146.381 E1.96615
G0 F5040 X118.87 Y146.023
G1 F2520 X147.664 Y174.817 E1.99094
G0 F5040 X148.23 Y174.817
G1 F2520 X119.077 Y145.664 E2.01576
G0 F5040 X119.284 Y145.306
G1 F2520 X148.795 Y174.817 E2.04052
G0 F5040 X149.361 Y174.817
G1 F2520 X119.491 Y144.946 E2.06537
G0 F5040 X119.698 Y144.588
G1 F2520 X149.927 Y174.817 E2.09016
G0 F5040 X150.492 Y174.817
G1 F2520 X119.905 Y144.229 E2.11495
G0 F5040 X120.112 Y143.871
G1 F2520 X151.058 Y174.817 E2.13974
G0 F5040 X151.624 Y174.817
G1 F2520 X120.319 Y143.512 E2.16456
G0 F5040 X120.526 Y143.153
G1 F2520 X152.189 Y174.817 E2.18935
G0 F5040 X152.755 Y174.817
G1 F2520 X120.733 Y142.795 E2.21414
G0 F5040 X120.94 Y142.436
G1 F2520 X153.321 Y174.817 E2.23896
G0 F5040 X153.886 Y174.817
G1 F2520 X121.147 Y142.078 E2.26372
G0 F5040 X121.355 Y141.719
G1 F2520 X154.452 Y174.817 E2.2885
G0 F5040 X155.018 Y174.817
G1 F2520 X121.562 Y141.361 E2.31329
G0 F5040 X121.768 Y141.002
G1 F2520 X155.583 Y174.817 E2.33811
G0 F5040 X156.149 Y174.817
G1 F2520 X121.975 Y140.643 E2.36294
G0 F5040 X122.183 Y140.285
G1 F2520 X156.715 Y174.817 E2.38769
G0 F5040 X157.262 Y174.798
G1 F2520 X122.39 Y139.926 E2.4112
G0 F5040 X122.597 Y139.568
G1 F2520 X157.469 Y174.44 E2.4112
G0 F5040 X157.677 Y174.081
G1 F2520 X122.803 Y139.208 E2.4113
G0 F5040 X123.011 Y138.85
G1 F2520 X157.883 Y173.722 E2.4112
G0 F5040 X158.09 Y173.364
G1 F2520 X123.218 Y138.491 E2.41123
G0 F5040 X123.425 Y138.133
G1 F2520 X158.297 Y173.005 E2.4112
G0 F5040 X158.505 Y172.647
G1 F2520 X123.632 Y137.774 E2.41127
G0 F5040 X123.839 Y137.415
G1 F2520 X158.712 Y172.288 E2.41127
G0 F5040 X158.919 Y171.93
G1 F2520 X124.046 Y137.057 E2.41127
G0 F5040 X124.253 Y136.698
G1 F2520 X159.125 Y171.57 E2.4112
G0 F5040 X159.333 Y171.212
G1 F2520 X124.46 Y136.34 E2.41123
G0 F5040 X124.667 Y135.981
G1 F2520 X159.54 Y170.853 E2.41123
G0 F5040 X159.747 Y170.495
G1 F2520 X124.874 Y135.622 E2.41127
G0 F5040 X125.081 Y135.263
G1 F2520 X159.954 Y170.136 E2.41127
G0 F5040 X160.161 Y169.778
G1 F2520 X125.288 Y134.905 E2.41127
G0 F5040 X125.495 Y134.546
G1 F2520 X160.368 Y169.419 E2.41127
G0 F5040 X160.575 Y169.06
G1 F2520 X125.703 Y134.188 E2.4112
G0 F5040 X125.91 Y133.829
G1 F2520 X160.782 Y168.702 E2.41123
G0 F5040 X160.989 Y168.343
G1 F2520 X126.116 Y133.47 E2.41127
G0 F5040 X126.323 Y133.112
G1 F2520 X161.197 Y167.985 E2.4113
G0 F5040 X161.404 Y167.626
G1 F2520 X126.531 Y132.753 E2.41127
G0 F5040 X126.738 Y132.395
G1 F2520 X161.61 Y167.267 E2.4112
G0 F5040 X161.817 Y166.909
G1 F2520 X126.945 Y132.036 E2.41123
G0 F5040 X127.151 Y131.677
G1 F2520 X162.025 Y166.55 E2.4113
G0 F5040 X162.232 Y166.192
G1 F2520 X127.359 Y131.318 E2.4113
G0 F5040 X127.566 Y130.96
G1 F2520 X162.439 Y165.833 E2.41127
G0 F5040 X162.646 Y165.475
G1 F2520 X127.773 Y130.601 E2.4113
G0 F5040 X127.98 Y130.243
G1 F2520 X162.853 Y165.115 E2.41123
G0 F5040 X163.06 Y164.757
G1 F2520 X128.187 Y129.884 E2.41127
G0 F5040 X128.394 Y129.525
G1 F2520 X163.267 Y164.398 E2.41127
G0 F5040 X163.474 Y164.04
G1 F2520 X128.601 Y129.167 E2.41127
G0 F5040 X128.808 Y128.808
G1 F2520 X163.681 Y163.681 E2.41127
G0 F5040 X163.888 Y163.323
G1 F2520 X129.015 Y128.45 E2.41127
G0 F5040 X129.222 Y128.09
G1 F2520 X164.095 Y162.964 E2.4113
G0 F5040 X164.302 Y162.605
G1 F2520 X129.429 Y127.732 E2.41127
G0 F5040 X129.636 Y127.373
G1 F2520 X164.509 Y162.247 E2.4113
G0 F5040 X164.716 Y161.888
G1 F2520 X130.01 Y127.182 E2.39972
G0 F5040 X130.576 Y127.182
G1 F2520 X164.924 Y161.53 E2.37497
G0 F5040 X165.131 Y161.171
G1 F2520 X131.142 Y127.182 E2.35015
G0 F5040 X131.707 Y127.182
G1 F2520 X165.337 Y160.812 E2.32532
G0 F5040 X165.545 Y160.453
G1 F2520 X132.273 Y127.182 E2.30053
G0 F5040 X132.839 Y127.182
G1 F2520 X165.752 Y160.095 E2.27575
G0 F5040 X165.959 Y159.736
G1 F2520 X133.404 Y127.182 E2.25096
G0 F5040 X133.97 Y127.182
G1 F2520 X166.166 Y159.378 E2.22617
G0 F5040 X166.373 Y159.019
G1 F2520 X134.536 Y127.182 E2.20135
G0 F5040 X135.101 Y127.182
G1 F2520 X166.58 Y158.66 E2.17656
G0 F5040 X166.787 Y158.302
G1 F2520 X135.667 Y127.182 E2.15177
G0 F5040 X136.233 Y127.182
G1 F2520 X166.994 Y157.943 E2.12695
G0 F5040 X167.201 Y157.585
G1 F2520 X136.798 Y127.182 E2.10219
G0 F5040 X137.364 Y127.182
G1 F2520 X167.408 Y157.226 E2.07737
G0 F5040 X167.615 Y156.867
G1 F2520 X137.93 Y127.182 E2.05255
G0 F5040 X138.496 Y127.182
G1 F2520 X167.822 Y156.508 E2.02773
G0 F5040 X168.029 Y156.15
G1 F2520 X139.061 Y127.182 E2.00297
G0 F5040 X139.627 Y127.182
G1 F2520 X168.236 Y155.791 E1.97815
G0 F5040 X168.444 Y155.433
G1 F2520 X140.193 Y127.182 E1.9534
G0 F5040 X140.758 Y127.182
G1 F2520 X168.651 Y155.074 E1.92861
G0 F5040 X168.857 Y154.715
G1 F2520 X141.324 Y127.182 E1.90375
G0 F5040 X141.89 Y127.182
G1 F2520 X169.064 Y154.357 E1.87896
G0 F5040 X169.272 Y153.998
G1 F2520 X142.455 Y127.182 E1.85421
G0 F5040 X143.021 Y127.182
G1 F2520 X169.479 Y153.64 E1.82942
G0 F5040 X169.686 Y153.281
G1 F2520 X143.587 Y127.182 E1.8046
G0 F5040 X144.152 Y127.182
G1 F2520 X169.893 Y152.923 E1.77984
G0 F5040 X170.1 Y152.563
G1 F2520 X144.718 Y127.182 E1.75499
G0 F5040 X145.284 Y127.182
G1 F2520 X170.307 Y152.205 E1.7302
G0 F5040 X170.514 Y151.846
G1 F2520 X145.849 Y127.182 E1.70541
G0 F5040 X146.415 Y127.182
G1 F2520 X170.721 Y151.488 E1.68062
G0 F5040 X170.928 Y151.129
G1 F2520 X146.981 Y127.182 E1.6558
G0 F5040 X147.547 Y127.182
G1 F2520 X170.506 Y150.141 E1.58748
G1 X170.576 Y150.211
G0 F5040 X169.733 Y148.802
G1 F2520 X148.112 Y127.182 E1.49493
G0 F5040 X148.678 Y127.182
G1 F2520 X168.96 Y147.464 E1.40238
G1 X169.03 Y147.534
G0 F5040 X168.187 Y146.125
G1 F2520 X149.244 Y127.182 E1.3098
G0 F5040 X149.809 Y127.182
G1 F2520 X167.414 Y144.787 E1.21729
G1 X167.484 Y144.857
G0 F5040 X166.642 Y143.449
G1 F2520 X150.375 Y127.182 E1.12477
G0 F5040 X150.941 Y127.182
G1 F2520 X165.869 Y142.11 E1.03219
G1 X165.939 Y142.18
G0 F5040 X165.096 Y140.772
G1 F2520 X151.506 Y127.182 E0.93967
G0 F5040 X152.072 Y127.182
G1 F2520 X164.323 Y139.433 E0.84709
G1 X164.393 Y139.503
G0 F5040 X163.55 Y138.095
G1 F2520 X152.638 Y127.182 E0.75454
G0 F5040 X153.203 Y127.182
G1 F2520 X162.778 Y136.756 E0.66202
G1 X162.848 Y136.826
G0 F5040 X162.005 Y135.418
G1 F2520 X153.769 Y127.182 E0.56947
G0 F5040 X154.335 Y127.182
G1 F2520 X161.232 Y134.079 E0.47689
G1 X161.302 Y134.149
G0 F5040 X160.459 Y132.74
G1 F2520 X154.9 Y127.182 E0.38434
G0 F5040 X155.466 Y127.182
G1 F2520 X159.686 Y131.402 E0.29179
G1 X159.756 Y131.472
G0 F5040 X158.913 Y130.063
G1 F2520 X156.032 Y127.182 E0.1992
G0 F5040 X156.597 Y127.182
G1 F2520 X158.14 Y128.725 E0.10669
G1 X158.21 Y128.795
G0 F5040 X157.368 Y127.386
G1 F2520 X157.163 Y127.182 E0.01414
G0 F5040 X157.163 Y127.2
;MESH:NONMESH
G0 F900 X157.163 Y127.2 Z0.4
G0 F5040 X115.656 Y151
G0 X115.326 Y151.001
;TIME_ELAPSED:147.463863
;LAYER:1
M106 S255
;TYPE:WALL-INNER
;MESH:Test_Part_1.STL
G1 F3660 X129.414 Y175.399 E0.46852
G1 X157.586 Y175.399 E0.4685
G1 X164.63 Y163.2 E0.23426
G1 X171.674 Y151.001 E0.23426
G1 X157.586 Y126.601 E0.46855
G1 X129.414 Y126.601 E0.4685
G1 X115.326 Y151.001 E0.46855
G0 F7320 X114.864 Y151.001
;TYPE:WALL-OUTER
G1 F3060 X129.183 Y175.799 E0.47621
G1 X157.817 Y175.799 E0.47619
G1 X164.976 Y163.4 E0.2381
G1 X172.136 Y151.001 E0.23811
G1 X157.817 Y126.201 E0.47623
G1 X129.183 Y126.201 E0.47619
G1 X114.864 Y151.001 E0.47623
G0 F7320 X114.964 Y151.174
G0 X115.766 Y151.001
;TYPE:SKIN
G1 F2460 X129.634 Y175.018 E0.46121
G1 X157.366 Y175.018 E0.46119
G1 X164.299 Y163.009 E0.2306
G1 X171.234 Y151.001 E0.2306
G1 X157.366 Y126.982 E0.46124
G1 X129.634 Y126.982 E0.46119
G1 X115.766 Y151.001 E0.46124
G0 F7320 X130.205 Y127.181
G1 F2460 X129.124 Y128.262 E0.02542
G1 X129.054 Y128.332
G0 F7320 X128.351 Y129.6
G1 F2460 X130.77 Y127.181 E0.05689
G0 F7320 X131.336 Y127.181
G1 F2460 X127.579 Y130.938 E0.08836
G1 X127.509 Y131.008
G0 F7320 X126.806 Y132.277
G1 F2460 X131.902 Y127.181 E0.11985
G0 F7320 X132.467 Y127.181
G1 F2460 X126.034 Y133.615 E0.15131
G1 X125.964 Y133.685
G0 F7320 X125.261 Y134.953
G1 F2460 X133.033 Y127.181 E0.18279
G0 F7320 X133.599 Y127.181
G1 F2460 X124.488 Y136.292 E0.21428
G1 X124.418 Y136.362
G0 F7320 X123.716 Y137.63
G1 F2460 X134.165 Y127.181 E0.24574
G0 F7320 X134.73 Y127.181
G1 F2460 X122.943 Y138.968 E0.27721
G1 X122.873 Y139.038
G0 F7320 X122.171 Y140.306
G1 F2460 X135.296 Y127.181 E0.30868
G0 F7320 X135.862 Y127.181
G1 F2460 X121.398 Y141.645 E0.34017
G1 X121.328 Y141.715
G0 F7320 X120.626 Y142.983
G1 F2460 X136.427 Y127.181 E0.37163
G0 F7320 X136.993 Y127.181
G1 F2460 X119.853 Y144.321 E0.40311
G1 X119.783 Y144.391
G0 F7320 X119.08 Y145.66
G1 F2460 X137.559 Y127.181 E0.4346
G0 F7320 X138.124 Y127.181
G1 F2460 X118.308 Y146.998 E0.46605
